!!!!SEGMENT: pl-cz--iii-332--010_just-franciszek-kasper--dixit-dominus-gloria-patri.krn
!!!cenid: 17xx:915
!!!COM: Just, Franciszek Kasper
!!!COM-rismID: pe30098311
!!!CDT: 1717-1760
!!!CNT: Czech
!!!OPR: Dixit Dominus
!!!OTL: Gloria patri
!!!OMV: 010
!!!PDT:
!!!AGN: Sacred
!!!SMS-siglum: PL-CZ
!!!SMS-shelfmark: III-332
!!!SMS-shelfwork: 001-010 M
!!!SMS-variant:
!!!SMS-altvar:
!!!NIFC-rismSourceID: 300000542
!!!NIFC-rismChildID: 300000542
!!!NIFC-islandoraID: pl-cz:37699
!!!URL-pdf-islandora: https://repozytorium.nifc.pl/islandora/object/pl-cz%3A37699/datastream/PDF/view
!!!URL-scan: https://polish.musicsources.pl/pl/lokalizacje/galeria/rekopisy/6905/1 @EN{Scan on Polish Music Sources Website} @PL{Skany w portalu Dziedzictwo Muzyki Polskiej w otwartym dostępie}
!!!IIIF:
!!!ONB-nifc: UWAGA: części Dixit Dominus: Dixit Dominus, Virgam virtutis tuae, Dominare in medio, Tecum principium, Juravit Dominus, Tu es sacerdos, Dominus a dextris, Judicabit in nationibus, De torrente, Gloria patri
!!!OMD: Tarde
!!!AIN: 1 alto 2 bass 2 clrno 1 oboe 1 organ 1 soprn 1 tenor 2 violn
!!!key: D
**kern	**fba	**kern	**kern	**kern	**kern	**text	**kern	**text	**kern	**text	**kern	**text	**kern	**kern	**kern
*part11	*part11	*part10	*part9	*part8	*part7	*part7	*part6	*part6	*part5	*part5	*part4	*part4	*part3	*part2	*part1
*staff11	*staff11	*staff10	*staff9	*staff8	*staff7	*staff7	*staff6	*staff6	*staff5	*staff5	*staff4	*staff4	*staff3	*staff2	*staff1
*I"Fundamento.	*	*I"Violino Secundo.	*I"Violino Primo.	*I"Baſso Secundo.	*I"Baſso.	*	*I"Tenore	*	*I"Alto.	*	*I"Canto.	*	*I"Clarino 2do.	*I"Clarino Primo exD.	*I"Oboa Solo.
*I'bc	*	*I'vl 2	*I'vl 1	*I'B 2	*I'B 1	*	*I'T	*	*I'A	*	*I'S	*	*I'clno 2	*I'clno 1	*I'ob
*Iorgan	*	*Ivioln	*Ivioln	*Ibass	*Ibass	*	*Itenor	*	*Ialto	*	*Isoprn	*	*Iclrno	*Iclrno	*Ioboe
*ICklav	*	*ICstr	*ICstr	*ICvox	*ICvox	*	*ICvox	*	*ICvox	*	*ICvox	*	*ICbras	*ICbras	*
*clefF4	*	*clefG2	*clefG2	*clefF4	*clefF4	*	*clefC4	*	*clefC3	*	*clefC1	*	*clefG2	*clefG2	*clefG2
*	*	*	*	*	*	*	*	*	*	*	*	*	*ITrd-1c-2	*ITrd-1c-2	*
*	*	*	*	*	*	*	*ok[c#f#]	*	*	*	*ok[c#f#]	*	*	*	*
*k[f#c#]	*	*k[f#c#]	*k[f#c#]	*k[f#c#]	*k[f#c#]	*	*k[f#c#]	*	*k[f#c#]	*	*k[f#c#]	*	*k[f#c#]	*k[f#c#]	*k[f#c#]
*D:	*	*D:	*D:	*D:	*D:	*	*D:	*	*D:	*	*D:	*	*	*	*D:
*M4/4	*	*M4/4	*M4/4	*M4/4	*M4/4	*	*M4/4	*	*M4/4	*	*M4/4	*	*M4/4	*M4/4	*M4/4
*met(c)	*	*met(c)	*met(c)	*met(c)	*met(c)	*	*met(c)	*	*met(c)	*	*met(c)	*	*met(c)	*met(c)	*met(c)
=1	=1	=1	=1	=1	=1	=1	=1	=1	=1	=1	=1	=1	=1	=1	=1
!	!	!	!	!	!	!	!	!	!	!	!	!	!	!LO:TX:a:t=Tarde	!
!	!	!LO:TX:a:t=Tarde T.	!LO:TX:a:t=Tarde	!LO:TX:a:t=nieoznaczony tacet	!LO:TX:a:t=Tarde	!	!LO:TX:a:t=Tarde T.	!	!LO:TX:a:t=Tarde	!	!LO:TX:a:t=Tarde	!	!LO:TX:a:t=Tard	!	!
!	!	!LO:TX:b:t=Gloria	!LO:TX:b:t=Gloria	!	!	!	!	!	!	!	!	!	!LO:TX:b:t=Gloria	!LO:TX:b:t=Gloria	!LO:TX:t=nieoznaczony tacet
4D/	.	4dd\	4ff#\	1ryy	4d\	Glo-	4d\	Glo-	4a\	Glo-	4dd\	Glo-	4dd\	4ff#\	1ryy
4A\	.	8ff#\L	8ff#\L	.	8A\	-ri-	8c#\	-ri-	8a\	-ri-	8ff#\	-ri-	8dd\L	4aa\	.
.	.	8dd\J	8aa\J	.	8A\	-a	8c#\	-a	8a\	-a	8ee,\	-a	8a\J	.	.
4B\	5	4dd\	4ff#\	.	4B\	Pa-	4B\	Pa-	4f#\	Pa-	4dd\	Pa-	4f#/	8ff#\L	.
.	.	.	.	.	.	.	.	.	.	.	.	.	.	8ee\	.
4F#\	6	4dd\	4ff#\	.	4F#\	-tri	4d\	-tri	4f#\	-tri	4dd\	-tri	4f#/	8dd\	.
.	.	.	.	.	.	.	.	.	.	.	.	.	.	8cc#\J	.
=2	=2	=2	=2	=2	=2	=2	=2	=2	=2	=2	=2	=2	=2	=2	=2
4G\	.	4cc#\	4ee\	1ryy	4G\	glo-	4c#\	glo-	4b\	glo-	4ee\	glo-	4a/	4ee\	1ryy
4A\	.	4cc#\	8ee\L	.	8A\	-ri-	8c#\	-ri-	8a\	-ri-	8ee\	-ri-	8a/L	4ee\	.
.	.	.	8ee\J	.	8A\	-a	8c#\	-a	8a\	-a	8ee,\	-a	8a/J	.	.
4D/	.	8.dd\L	8.ff#\L	.	8.D/	Fi-	8.d\	Fi-	8.a\	Fi-	8.ff#\	Fi-	8dd\L	8ff#\L	.
.	.	.	.	.	.	.	.	.	.	.	.	.	8dd\J	8ff#\J	.
.	.	16dd\Jk	16ff#\Jk	.	16D/	-li-	16d\	-li-	16a\	-li-	16ff#\	-li-	.	.	.
4D/	.	4dd\	4ff#\	.	4D/	-o	4d\	-o	4a\	-o	4ff#\	-o	4dd\	4ff#\	.
=3	=3	=3	=3	=3	=3	=3	=3	=3	=3	=3	=3	=3	=3	=3	=3
8d\L	3	8dd\L	8ff#\L	1ryy	8d\L	.	8B\L	.	4a\	et	8ff#\L	et	8dd\L	8ff#\L	1ryy
8c#\	3	8ee\	8ee\	.	8c#\J	et	8c#\J	et	.	.	8ee\J	.	8ee\	8ee\	.
8B\	3	8ff#\	8dd\	.	8B\L	Spi-	8d\L	Spi-	4a\	Spi-	8dd\L	Spi-	8ee\	8ee\	.
8A\J	3	8ee\J	8cc#\J	.	8A\J	.	8c#\J	.	.	.	8cc#\J	.	8ee\J	8ee\J	.
8E\L	#	4ee\	4b\	.	8G#X\L	-ri-	4e\	-ri-	4g#X\	-ri-	4b\	-ri-	4ee\	4ee\	.
8D\	.	.	.	.	8E\J	.	.	.	.	.	.	.	.	.	.
!	!	!	!	!	!	!	!	!	!	!	!	!	!LO:TX:t=P:problem=mixed beam	!	!
8C#\	.	8cc#\L	8ee\L	.	8A\	-tu-	8e\	-tu-	8e\	-tu-	8a\	-tu-	8ee\L	8ee\L	.
8D\J	.	8dd\J	[8ee\J	.	8D/	-i	8e\	-i	8e\	-i	8a\	-i	8a/J	8ee\J	.
=4	=4	=4	=4	=4	=4	=4	=4	=4	=4	=4	=4	=4	=4	=4	=4
*	*	*2\right	*2\right	*	*2\right	*	*2\right	*	*2\right	*	*2\right	*	*2\right	*2\right	*
4E\	#	2b\	2ee\]	1ryy	2E\	San-	2e\	Sanc-	2e\	Sanc-	2b\	Sanc-	2ee\	2ee\	1ryy
*	*	*	*	*	*custos:AA	*	*	*	*	*	*	*	*	*	*
4EE/	.	.	.	.	.	.	.	.	.	.	.	.	.	.	.
!	!	!	!	!	!LO:LB:g=original	!	!	!	!	!	!	!	!	!	!
=-	=-	=-	=-	=-	=-	=-	=-	=-	=-	=-	=-	=-	=-	=-	=-
4AA/	.	4cc#\	4ee\	.	4AA/	-cto	4e\	-to	4e\	-to	4cc#,\	-to	4a/	4ee\	.
4D/	.	8dd\L	8ff#\L	.	8D\	et	8A/	et	8a\	et	8dd\	et	8dd\L	8ff#\L	.
.	.	8dd\J	8ff#\J	.	8F#\	Spi-	8A/	Spi-	8a\	Spi-	8dd\	Spi-	8dd\J	8ff#\J	.
=5	=5	=5	=5	=5	=5	=5	=5	=5	=5	=5	=5	=5	=5	=5	=5
4G\	.	4b\	4dd\	1ryy	4Gn\	-ri-	4B\	-ri-	4gn\	-ri-	4b\	-ri-	4dd\	4dd\	1ryy
4D\	.	8b\L	8dd\L	.	8D/	-tu-	8B\	-tu-	8g\	-tu-	8cc#\	-tu-	8dd\L	8dd\L	.
.	.	8b\J	8dd\J	.	8D/	-i	8B\	-i	8g\	-i	8dd,\	-i	8dd\J	8dd\J	.
!	!	!	!	!	!	!	!	!	!LO:LB:g=original	!	!	!	!	!	!
=-	=-	=-	=-	=-	=-	=-	=-	=-	=-	=-	=-	=-	=-	=-	=-
4A\	.	4cc#\	4ee\	.	4A\	San-	4c#\	San-	2a\	San-	(4ee\	San-	4a/	4ee\	.
4d\	.	4dd\	4ff#\	.	4D/	.	4d\	.	.	.	4ff#\)	.	4dd\	4ff#\	.
!	!	!	!	!	!	!	!LO:LB:g=original	!	!	!	!	!	!	!	!
=6	=6	=6	=6	=6	=6	=6	=6	=6	=6	=6	=6	=6	=6	=6	=6
*	*	*	*	*	*	*	*	*	*	*	*custos:ff	*	*	*	*
!	!	!	!	!	!	!	!	!	!	!	!	!	!	!	!LO:TX:a:B:t=Allegro
4A\	.	2cc#\	2ee\	1ryy	2AA/	.	2c#\	.	2a\	.	2ee\	.	2a/	2ee\	1ryy
4AA/	.	.	.	.	.	.	.	.	.	.	.	.	.	.	.
!	!	!	!	!	!	!	!	!	!	!	!LO:LB:g=original	!	!	!	!
=-	=-	=-	=-	=-	=-	=-	=-	=-	=-	=-	=-	=-	=-	=-	=-
!	!	!	!	!	!	!	!LO:TX:a:i:t=Allegro	!	!	!	!	!	!LO:TX:a:i:t=Allegro	!LO:TX:b:i:t=Sicut	!
4D/	.	4dd\	4ff#\	.	4D/	-cto.	4d\	-cto,	4a\	-cto	4ff#,\	-cto.	4dd\	4ff#\	.
!	!	!LO:TX:a:i:t=Allegro	!	!	!LO:TX:b:i:t=Allegro	!	!	!	!LO:TX:a:i:t=Allegro	!	!LO:TX:a:i:t=Allegro	!	!	!	!
!LO:TX:a:i:t=Allegro	!	!LO:TX:b:i:t=Sicut erat	!	!	!	!	!	!	!	!	!	!	!LO:TX:b:i:t=Sicut erat	!LO:TX:a:i:t=Allegro	!
8D\L	.	4r	4r	.	8d\	Si-	8d\	Si-	8a\	Si-	8ff#\	Si-	8dd/L	8ff#\L	.
!LO:TX:b:i:t=Sicut erat	!	!	!	!	!	!	!	!	!	!	!	!	!	!	!
8A\J	.	.	.	.	8A\	-cut	8c#\	-cut	8a\	-cut	8ee\	-cut	8a/J	8ee\J	.
=7	=7	=7	=7	=7	=7	=7	=7	=7	=7	=7	=7	=7	=7	=7	=7
!	!	!	!LO:TX:a:i:t=Allegro	!	!	!	!	!	!	!	!	!	!	!	!
!	!	!	!LO:TX:b:i:t=Sicut erat	!	!	!	!	!	!	!	!	!	!	!	!
8d\L	.	4r	4r	1ryy	8d\	e-	8d\	e-	8a\	e-	8ff#\	e-	8dd/L	8ff#\L	1ryy
8A\J	.	.	.	.	8A\	-rat	8c#\	-rat	8a\	-rat	8ee\	-rat	8a/J	8ee\J	.
4r	.	8dd\L	8ff#\L	.	4r	.	4r	.	4r	.	4r	.	4r	4r	.
.	.	8cc#\J	8ee\J	.	.	.	.	.	.	.	.	.	.	.	.
!LO:LB:g=original	!	!LO:LB:g=original	!	!	!	!	!	!	!	!	!	!	!LO:LB:g=original	!LO:LB:g=original	!
=-	=-	=-	=-	=-	=-	=-	=-	=-	=-	=-	=-	=-	=-	=-	=-
4r	.	8dd\L	8ff#\L	.	4r	.	4r	.	4r	.	4r	.	4r	4r	.
.	.	8cc#\J	8ee\J	.	.	.	.	.	.	.	.	.	.	.	.
8B\L	.	4r	4r	.	8B\	in	8B\	in	8f#\	in	8dd\	in	8f#/L	8f#/L	.
8A#X\J	6	.	.	.	8A#X\	prin-	8A#X\	prin-	8f#\	prin-	8cc#\	prin-	8f#/J	8f#/J	.
!	!	!	!LO:LB:g=original	!	!	!	!	!	!	!	!	!	!	!	!
=8	=8	=8	=8	=8	=8	=8	=8	=8	=8	=8	=8	=8	=8	=8	=8
8B\L	.	4r	4r	1ryy	16B\	-ci-	16B\	-ci-	16f#\	-ci-	16dd\	-ci-	8f#/L	8f#/L	1ryy
.	.	.	.	.	16F#\	-pi-	16A#X\	-pi-	16f#\	-pi-	16cc#\	-pi-	.	.	.
8F#\J	#	.	.	.	8F#\	-o	8A#\	-o	8f#\	-o	8cc#\	-o	8f#/J	8f#/J	.
4r	.	8b/L	8dd\L	.	4r	.	4r	.	4r	.	4r	.	4r	4r	.
.	.	8a/J	8cc#\J	.	.	.	.	.	.	.	.	.	.	.	.
8r	.	8b\L	8dd\L	.	8r	.	8r	.	8r	.	8r	.	2r	2r	.
8G\L	.	8b\	8b\	.	8G\	et	8B\	et	8g\	et	8b\	et	.	.	.
8G\	.	8cc#\	8cc#\	.	8G\	nu(n)c	8An\	nunc	8a\	nu(n)c	8cc#,\	nu(n)c	.	.	.
8F#\J	.	8dd\J	8dd\J	.	8F#\	et	8B\	et	8b\	et	8dd\	et	.	.	.
=9	=9	=9	=9	=9	=9	=9	=9	=9	=9	=9	=9	=9	=9	=9	=9
8E\L	6	8cc#\L	8cc#\L	1ryy	8E\	Sem-	8c#\	Sem-	8a\	Sem-	8cc#\	Sem-	2r	2r	1ryy
8D\	.	8dd\	8dd\	.	8D/	-per	8d\	-per	8a\	-p(er)	8dd,\	-per	.	.	.
8C#\	6	8ee\	8ee\	.	8C#/	et	8e\	et	8a\	et	8ee\	et	.	.	.
8D\J	.	8dd\J	8ff#\J	.	8D/	in	8d\	in	8a\	in	8ff#\	in	.	.	.
!	!	!	!	!	!LO:LB:g=original	!	!	!	!	!	!	!	!	!	!
=-	=-	=-	=-	=-	=-	=-	=-	=-	=-	=-	=-	=-	=-	=-	=-
4A\	.	8.cc#\L	8.ee\L	.	8.A\	sae-	8.c#\	Sae-	8.a\	Sae-	8.ee\	Sae-	8.a/L	8.ff#\L	.
.	.	16cc#\Jk	16ee\Jk	.	16AA/	-cu-	16c#\	-cu-	16a\	-cu-	16ee\	-cu-	16a/Jk	16ee\Jk	.
4AA/	.	4cc#\	4ee\	.	4AA/	-la	4c#\	-la	4a\	-la	4ee\	-la	4a/	4ee\	.
*clefC1	*	*	*	*	*	*	*	*	*	*	*	*	*	*	*
!	!	!	!	!	!	!	!	!	!LO:LB:g=original	!	!	!	!	!	!
=10	=10	=10	=10	=10	=10	=10	=10	=10	=10	=10	=10	=10	=10	=10	=10
*^	*	*	*	*	*	*	*	*	*	*	*	*	*	*	*
!	!	!	!	!	!	!LO:TX:a:t=1	!	!LO:TX:a:t=1	!	!	!	!	!	!	!	!
8a/L	4r	.	4r	8a\L	1ryy	1r	.	1r	.	4r	.	8a\L	.	00r	00r	1ryy
8b/	.	.	.	8b\	.	.	.	.	.	.	.	(8b\J	Sae-	.	.	.
*	*2\right	*	*	*	*	*	*	*	*	*	*	*	*	*	*	*
8cc#/	2a\	.	2a/	8cc#\	.	.	.	.	.	2a\	Sae-	8cc#\)	.	.	.	.
8dd/J	.	.	.	8dd\J	.	.	.	.	.	.	.	8dd\	-cu-	.	.	.
8ee/L	.	.	.	8ee\L	.	.	.	.	.	.	.	8ee\L	-lo-	.	.	.
16dd/L	.	.	.	16dd\L	.	.	.	.	.	.	.	16dd\L	.	.	.	.
16cc#/JJ	.	.	.	16cc#\JJ	.	.	.	.	.	.	.	16cc#\JJ	.	.	.	.
8b/L	4g\	.	4a/	8b\L	.	.	.	.	.	4g\	-cu-	8b\	.	.	.	.
8cc#/J	.	.	.	8cc#\J	.	.	.	.	.	.	.	8cc#\	.	.	.	.
*v	*v	*	*	*	*	*	*	*	*	*	*	*	*	*	*	*
*clefF4	*	*	*	*	*	*	*	*	*	*	*	*	*	*	*
!	!	!	!	!	!	!	!LO:LB:g=original	!	!	!	!LO:LB:g=original	!	!	!	!
=11	=11	=11	=11	=11	=11-	=11	=11	=11	=11	=11	=11	=11	=11-	=11-	=11
2d\	.	4f#/	4dd\	1ryy	2d\	Sae-	2d\	Sae-	2f#\	-lo-	4dd,\	-rum	.	.	1ryy
.	.	4dd\	4ff#\	.	.	.	.	.	.	.	4ff#\	Sae-	.	.	.
2A\	.	2cc#\	2ee\	.	2A\	-cu-	2c#\	-cu-	2a\	-rum	2ee\	-cu-	.	.	.
=12	=12	=12	=12	=12	=12	=12	=12	=12	=12	=12	=12	=12	=12-	=12-	=12
2B\	.	2b\	2dd\	1ryy	2B\	-lo-	2d\	-lo-	2e\	Sae-	2dd\	-lo-	.	.	1ryy
2F#\	6	2a/	2cc#\	.	2F#\	-rum	2A\	-rum	2f#\	-cu-	2cc#\	-rum	.	.	.
=13	=13	=13	=13	=13	=13	=13	=13	=13	=13	=13	=13	=13	=13-	=13-	=13
2G\	.	2g/	2b\	1ryy	2G\	Sae-	2B\	Sae-	2g\	-lo-	2b\	Sae-	.	.	1ryy
2D\	.	2f#/	2a/	.	2D\	-cu-	2F#/	-cu-	2a\	.	2a\	-cu-	.	.	.
!LO:LB:g=original	!	!	!	!	!	!	!	!	!	!	!	!	!	!	!
=14	=14	=14	=14	=14	=14	=14	=14	=14	=14	=14	=14	=14	=14-	=14-	=14
4A\	.	4cc#\	4ee\	1ryy	4A\	-lo-	4c#\	-lo-	4a\	.	4ee\	-lo-	4a/	4ee\	1ryy
4D/	.	8dd\L	8ff#\L	.	4D/	-rum.	4d\	-rum,	4a\	-rum	4ff#,\	-ru(m)	4dd\	4ff#\	.
.	.	8ff#\J	8dd\J	.	.	.	.	.	.	.	.	.	.	.	.
2AA/	.	4gg\	4a/	.	2AA/	A-	2c#\	a-	2a\	a-	2ee\	a-	2a/	2ee\	.
.	.	4ee\	4ccc#\	.	.	.	.	.	.	.	.	.	.	.	.
!	!	!LO:LB:g=original	!	!	!	!	!	!	!	!	!	!	!	!	!
=15	=15	=15	=15	=15	=15	=15	=15	=15	=15	=15	=15	=15	=15	=15	=15
*M3/8	*	*M3/8	*M3/8	*M3/8	*M3/8	*	*M3/8	*	*M3/8	*	*M3/8	*	*M3/8	*M3/8	*M3/8
!	!	!LO:TX:a:i:t=Presto	!LO:TX:b:i:t=Presto	!	!	!	!LO:TX:a:t=Presto	!	!LO:TX:a:t=Presto	!	!	!	!	!LO:TX:a:t=Preſto	!
!LO:TX:a:t=Presto	!	!LO:TX:b:i:t=Amen	!LO:TX:b:i:t=amen.	!	!	!	!	!	!	!	!	!	!LO:TX:a:t=Presto	!LO:TX:b:t=Amen	!
8D\L	.	8ff#\	8ddd\	4.ryy	8D/	-men	8d,\	-men	8a\	-men	8ff#\	-men,	8dd\L	8ff#\L	4.ryy
*	*	*	*	*	*	*ij	*	*ij	*	*ij	*	*ij	*	*	*
8d\	.	8r	8r	.	8d\	a-	8d\	a-	8a\	a-	8ff#\	a-	8dd\	8ff#\	.
!LO:TX:b:t=amen.	!	!	!	!	!	!	!	!	!	!	!	!	!	!	!
8A\J	.	8r	8r	.	8A\	-men	8c#\	-men	8a\	-men	8ee\	-men	8ee\J	8aa\J	.
*	*	*	*	*	*	*Xij	*	*Xij	*	*Xij	*	*Xij	*	*	*
!	!	!	!LO:LB:g=original	!	!	!	!	!	!	!	!	!	!	!	!
=16	=16	=16	=16	=16	=16	=16	=16	=16	=16	=16	=16	=16	=16	=16	=16
!LO:TX:a:t=1	!	!	!	!	!LO:TX:a:t=3.	!	!	!	!	!	!LO:TX:a:t=3.	!	!	!	!
4.r	.	8ddd\L	8ddd\L	4.ryy	2.r	.	2.r	.	2.r	.	2.r	.	2.r	2.r	4.ryy
.	.	8aa\	8aa\	.	.	.	.	.	.	.	.	.	.	.	.
.	.	8ff#\J	8ff#\J	.	.	.	.	.	.	.	.	.	.	.	.
=17	=17	=17	=17	=17	=17-	=17	=17-	=17	=17-	=17	=17-	=17	=17-	=17-	=17
8d|>\L	.	8dd\L	8dd\L	4.ryy	.	.	.	.	.	.	.	.	.	.	4.ryy
8A|>\	.	8a\	8a\	.	.	.	.	.	.	.	.	.	.	.	.
8F#|>\J	.	8f#\J	8f#\J	.	.	.	.	.	.	.	.	.	.	.	.
=18	=18	=18	=18	=18	=18-	=18	=18-	=18	=18-	=18	=18-	=18	=18-	=18-	=18
8D\L	.	8d/L	8d/L	4.ryy	4.r	.	4.r	.	4.r	.	4.r	.	4.r	4.r	4.ryy
8F#\	.	8f#/	8f#/	.	.	.	.	.	.	.	.	.	.	.	.
8G#X\J	.	8g#X/J	8g#X/J	.	.	.	.	.	.	.	.	.	.	.	.
=19	=19	=19	=19	=19	=19-	=19	=19-	=19	=19	=19	=19	=19	=19-	=19-	=19
!	!	!	!LO:TX:t=P:problem=mixed beam	!	!	!	!	!	!	!	!	!	!	!	!
8A\L	.	8a\L	8a/L	4.ryy	8r	.	8r	.	8r	.	8r	.	8r	8r	4.ryy
8A\	.	8cc#\	8aa\	.	8A\	a-	8c#\	a-	8a\	a-	8ee\	a-	8a\L	8ee\L	.
8E\J	#	8b\J	8gg#X\J	.	8E\	-men	8B\	-men	8g#X\	-men	8ee\	-men	8ee\J	8ee\J	.
=20	=20	=20	=20	=20	=20	=20	=20	=20	=20	=20	=20	=20	=20	=20	=20
*	*	*	*	*	*	*ij	*	*	*	*ij	*	*ij	*	*	*
8A\L	.	8cc#\L	8ee\L	4.ryy	8A\	a-	8r	.	8a\	a-	8ee\	a-	8a\L	8ee\L	4.ryy
*	*	*	*	*	*	*	*	*ij	*	*	*	*	*	*	*
8E\J	#	8b\J	8ee\J	.	8E\	-men	8c#\	a-	8g#X\	-men	8ee\	-men	8ee\J	8ee\J	.
*	*	*	*	*	*	*Xij	*	*	*	*Xij	*	*Xij	*	*	*
8r	.	8r	8r	.	8r	.	8B\	-men	8r	.	8r	.	8r	8r	.
*	*	*	*	*	*	*	*	*Xij	*	*	*	*	*	*	*
=21	=21	=21	=21	=21	=21	=21	=21	=21	=21	=21	=21	=21	=21	=21	=21
8A\L	.	16cc#\LL	16ee\LL	4.ryy	8A\L	a-	4.c#\	a-	4.a\	a-	4.ee\	a-	4.a/	4.ee\	4.ryy
.	.	16ee\	16aa\	.	.	.	.	.	.	.	.	.	.	.	.
8c#\	.	16cc#\	16ee\	.	8c#\	.	.	.	.	.	.	.	.	.	.
.	.	16ee\	16aa\	.	.	.	.	.	.	.	.	.	.	.	.
8A\J	.	16cc#\	16ee\	.	8A\J	.	.	.	.	.	.	.	.	.	.
*	*	*	*	*	*custos:B	*	*	*	*	*	*	*	*	*	*
.	.	16ee\JJ	16aa\JJ	.	.	.	.	.	.	.	.	.	.	.	.
!	!	!	!	!	!LO:LB:g=original	!	!	!	!LO:LB:g=original	!	!	!	!	!	!
=22	=22	=22	=22	=22	=22	=22	=22	=22	=22	=22	=22	=22	=22	=22	=22
!	!	!	!	!	!	!	!	!	!	!	!	!	!	!LO:TX:t=P:problem=takt zapisany powtórką	!
8E\L	#	16b\LL	16dd\LL	4.ryy	8B\L	.	4.B\	.	4.g#X\	.	4.dd\	.	4.ee\	4.ee\	4.ryy
.	.	16dd\	16bb\	.	.	.	.	.	.	.	.	.	.	.	.
8G#X\	.	16b\	16dd\	.	8G#X\	.	.	.	.	.	.	.	.	.	.
.	.	16dd\	16bb\	.	.	.	.	.	.	.	.	.	.	.	.
8E\J	.	16b\	16dd\	.	8E\J	.	.	.	.	.	.	.	.	.	.
.	.	16dd\JJ	16bb\JJ	.	.	.	.	.	.	.	.	.	.	.	.
=23	=23	=23	=23	=23	=23	=23	=23	=23	=23	=23	=23	=23	=23	=23	=23
8A\L	.	16cc#\LL	16cc#\LL	4.ryy	8A\L	.	16e\LL	.	4.a\	.	16cc#\LL	.	4.a/	8ee\L	4.ryy
.	.	16ee\	16aa\	.	.	.	16d\JJ	.	.	.	16dd\JJ	.	.	.	.
8c#\	.	16cc#\	16cc#\	.	8c#\	.	4c#\	.	.	.	4ee\	.	.	8ee\	.
.	.	16ee\	16aa\	.	.	.	.	.	.	.	.	.	.	.	.
8A\J	.	16cc#\	16cc#\	.	8A\J	.	.	.	.	.	.	.	.	8ee\J	.
.	.	16ee\JJ	16aa\JJ	.	.	.	.	.	.	.	.	.	.	.	.
!	!	!	!	!	!	!	!LO:LB:g=original	!	!	!	!	!	!	!	!
=24	=24	=24	=24	=24	=24	=24	=24	=24	=24	=24	=24	=24	=24	=24	=24
!	!	!	!	!	!	!	!	!	!	!	!	!	!	!LO:TX:t=P:problem=takt zapisany powtórką	!
8E\L	#	16b\LL	16dd\LL	4.ryy	8B\L	.	4.B\	.	4g#X\	.	4.dd\	.	4.ee\	8ee\L	4.ryy
.	.	16dd\	16bb\	.	.	.	.	.	.	.	.	.	.	.	.
8G#X\	.	16b\	16dd\	.	8G#X\	.	.	.	.	.	.	.	.	8ee\	.
.	.	16dd\	16bb\	.	.	.	.	.	.	.	.	.	.	.	.
8E\J	.	16b\	16dd\	.	8E\J	.	.	.	8ryy	.	.	.	.	8ee\J	.
.	.	16dd\JJ	16bb\JJ	.	.	.	.	.	.	.	.	.	.	.	.
!	!	!	!	!	!	!	!	!	!	!	!LO:LB:g=original	!	!	!	!
=25	=25	=25	=25	=25	=25	=25	=25	=25	=25	=25	=25	=25	=25	=25	=25
!LO:TX:t=P:problem=mixed beam	!	!	!	!	!LO:TX:t=P:problem=mixed beam	!	!	!	!	!	!	!	!	!	!
8A\L	.	8cc#\L	8cc#\L	4.ryy	8A\L	.	8e\L	.	4a\	.	8cc#\L	.	4a/	4ee\	4.ryy
8E\	#	8ee\	8ee\	.	8E\	.	8c#\	.	.	.	8ee\	.	.	.	.
8AA/J	.	8ee\J	8aa\J	.	8AA/J	.	8e\J	.	8a\	.	8cc#\J	.	8r	8r	.
!LO:LB:g=original	!	!	!	!	!	!	!	!	!	!	!	!	!LO:LB:g=original	!LO:LB:g=original	!
=26	=26	=26	=26	=26	=26	=26	=26	=26	=26	=26	=26	=26	=26	=26	=26
!LO:TX:t=P:problem=mixed beam	!	!	!	!	!	!	!	!	!	!	!	!	!	!	!
8D\L	.	8dd\	8ff#\	4.ryy	8D\	.	8f#\	.	8a\	.	8dd\	.	8dd\	8ff#\	4.ryy
8E\	#	4b\	4gg#X\	.	4ET\	.	4e\	.	4g#X\	.	4b\	.	4ee\	4ee\	.
8EE/J	.	.	.	.	.	.	.	.	.	.	.	.	.	.	.
!	!	!LO:LB:g=original	!	!	!	!	!	!	!	!	!	!	!	!	!
=27	=27	=27	=27	=27	=27	=27	=27	=27	=27	=27	=27	=27	=27	=27	=27
4AA/	.	8aa\L	8aa\L	4.ryy	4AA/	-men	4e\	-men	4a\	-men	4a\	-men	4a/	8ee\	4.ryy
.	.	8ee\	8ee\	.	.	.	.	.	.	.	.	.	.	8r	.
8r	.	8cc#\J	8cc#\J	.	8r	.	8r	.	8r	.	8r	.	8r	8r	.
=28	=28	=28	=28	=28	=28	=28	=28	=28	=28	=28	=28	=28	=28	=28	=28
!	!	!	!	!	!LO:TX:a:t=3.	!	!LO:TX:a:t=1	!	!	!	!LO:TX:a:t=1	!	!	!	!
8A|>\L	.	8a/L	8a/L	4.ryy	2.r	.	4.r	.	2.r	.	4.r	.	2.r	2.r	4.ryy
8E|>\	.	8e/	8e/	.	.	.	.	.	.	.	.	.	.	.	.
8C#|>\J	.	8c#/J	8c#/J	.	.	.	.	.	.	.	.	.	.	.	.
=29	=29	=29	=29	=29	=29-	=29	=29-	=29	=29-	=29	=29-	=29	=29-	=29-	=29
!	!	!	!LO:TX:t=P:problem=mixed beam	!	!	!	!	!	!	!	!	!	!	!	!
4AA/	.	8A/L	8A/L	4.ryy	.	.	8E\L	a-	.	.	8a\L	A-	.	.	4.ryy
.	.	8a/	8cc#\	.	.	.	8A\	.	.	.	8cc#\	.	.	.	.
8r	.	8cc#/J	8ee\J	.	.	.	8c#\J	.	.	.	8ee\J	.	.	.	.
!	!	!	!LO:LB:g=original	!	!	!	!	!	!	!	!	!	!	!	!
=30	=30	=30	=30	=30	=30-	=30	=30	=30	=30-	=30	=30	=30	=30-	=30-	=30
!LO:TX:a:t=1	!	!	!	!	!	!	!	!	!	!	!	!	!	!	!
4.r	.	4ee\	4ggn\	4.ryy	4.r	.	4e\	-men	4.r	.	4ggn\	-men	4.r	4.r	4.ryy
.	.	8r	8r	.	.	.	8r	.	.	.	8r	.	.	.	.
=31	=31	=31	=31	=31	=31-	=31	=31	=31	=31-	=31	=31	=31	=31	=31-	=31
8d\L	.	8ff#\L	8ddd\L	4.ryy	8d\	a-	8d\	a-	8r	.	8ff#\	a-	8dd\L	8ff#\L	4.ryy
8A\J	.	8ee\J	8ccc#\J	.	8A\	-men	8c#\	-men	8a\	a-	8ee\	-men	8ee\J	8aa\J	.
8r	.	8r	8r	.	8r	.	8r	.	8a\	-men	8r	.	8r	8r	.
=32	=32	=32	=32	=32	=32	=32	=32	=32	=32	=32	=32	=32	=32	=32	=32
!	!	!	!	!	!LO:TX:t=P:problem=brak taktu 32	!	!	!	!	!	!	!	!	!	!
8D\L	.	16ff#\LL	16dd\LL	4.ryy	4.ryy	.	8A\L	a-	4.a\	a-	4.dd\	a-	4.dd\	4.dd\	4.ryy
.	.	16dd\	16aa\	.	.	.	.	.	.	.	.	.	.	.	.
8F#\	.	16ff#\	16dd\	.	.	.	8d\	.	.	.	.	.	.	.	.
.	.	16dd\	16aa\	.	.	.	.	.	.	.	.	.	.	.	.
8D\J	.	16ff#\	16dd\	.	.	.	8A\J	.	.	.	.	.	.	.	.
.	.	16dd\JJ	16aa\JJ	.	.	.	.	.	.	.	.	.	.	.	.
=33	=33	=33	=33	=33	=33	=33	=33	=33	=33	=33	=33	=33	=33	=33	=33
!LO:TX:t=P:problem=mixed beam	!	!	!	!	!	!	!	!	!	!	!	!	!	!	!
8G\L	.	16dd\LL	8bb\L	4.ryy	8D\L	a-	4.B\	.	4.g\	.	4.ddT\	.	4.dd\	4.dd\	4.ryy
.	.	16ee\	.	.	.	.	.	.	.	.	.	.	.	.	.
8D\	6 4	16dd\	8gg\	.	8F#\	.	.	.	.	.	.	.	.	.	.
.	.	16ee\	.	.	.	.	.	.	.	.	.	.	.	.	.
8BB/J	6	16dd\	8dd\J	.	8D\J	.	.	.	.	.	.	.	.	.	.
.	.	16ee\JJ	.	.	.	.	.	.	.	.	.	.	.	.	.
=34	=34	=34	=34	=34	=34	=34	=34	=34	=34	=34	=34	=34	=34	=34	=34
!LO:TX:t=P:problem=mixed beam	!	!	!	!	!LO:TX:t=P:problem=mixed beam	!	!	!	!	!	!	!	!	!	!
8GG/L	6	16gg#X\LL	16ee\LL	4.ryy	8GG/L	.	4.B\	.	4.b\	.	4.eeT\	.	4.ee\	4.ee\	4.ryy
.	.	16ee\	16bb\	.	.	.	.	.	.	.	.	.	.	.	.
8G#X\	6	16gg#\	16ee\	.	8G#X\	.	.	.	.	.	.	.	.	.	.
.	.	16ee\	16bb\	.	.	.	.	.	.	.	.	.	.	.	.
8E\J	.	16gg#\	16ee\	.	8E\J	.	.	.	.	.	.	.	.	.	.
.	.	16ee\JJ	16bb\JJ	.	.	.	.	.	.	.	.	.	.	.	.
=35	=35	=35	=35	=35	=35	=35	=35	=35	=35	=35	=35	=35	=35	=35	=35
8A\L	.	16ee\LL	8ccc#\L	4.ryy	8A\L	.	4.c#\	.	4.a\	.	4.ee\	.	4.a/	4.ee\	4.ryy
.	.	16ff#\	.	.	.	.	.	.	.	.	.	.	.	.	.
8E\	6 4	16ee\	8aa\	.	8E\	.	.	.	.	.	.	.	.	.	.
.	.	16ff#\	.	.	.	.	.	.	.	.	.	.	.	.	.
8C#\J	6	16ee\	8ee\J	.	8C#\J	.	.	.	.	.	.	.	.	.	.
.	.	16ff#\JJ	.	.	.	.	.	.	.	.	.	.	.	.	.
=36	=36	=36	=36	=36	=36	=36	=36	=36	=36	=36	=36	=36	=36	=36	=36
!LO:TX:t=P:problem=mixed beam	!	!	!	!	!LO:TX:t=P:problem=mixed beam	!	!	!	!	!	!	!	!	!	!
8AA/L	6	16ff#\LL	16ff#\LL	4.ryy	8AA/L	.	4.c#\	.	4.cc#\	.	4.ff#t\	.	4.ff#\	4.ff#\	4.ryy
.	.	16ggn\	16ccc#\	.	.	.	.	.	.	.	.	.	.	.	.
8A#X\	6	16ff#\	16aa#X\	.	8A#X\	.	.	.	.	.	.	.	.	.	.
.	.	16gg\	16ccc#\	.	.	.	.	.	.	.	.	.	.	.	.
8F#\J	.	16ff#\	16aa#\	.	8F#\J	.	.	.	.	.	.	.	.	.	.
.	.	16gg\JJ	16ccc#\JJ	.	.	.	.	.	.	.	.	.	.	.	.
=37	=37	=37	=37	=37	=37	=37	=37	=37	=37	=37	=37	=37	=37	=37	=37
8B\L	.	16ff#\LL	8ddd\L	4.ryy	8B\L	.	4.d\	.	4.b\	.	4.ff#\	.	4.ff#\	4.ff#\	4.ryy
.	.	16gg\	.	.	.	.	.	.	.	.	.	.	.	.	.
8F#\	6 4	16ff#\	8bb\	.	8F#\	.	.	.	.	.	.	.	.	.	.
.	.	16gg\	.	.	.	.	.	.	.	.	.	.	.	.	.
8D\J	6	16ff#\	8bb\J	.	8D\J	.	.	.	.	.	.	.	.	.	.
.	.	16gg\JJ	.	.	.	.	.	.	.	.	.	.	.	.	.
!	!	!	!	!	!LO:LB:g=original	!	!	!	!	!	!	!	!	!	!
=38	=38	=38	=38	=38	=38	=38	=38	=38	=38	=38	=38	=38	=38	=38	=38
!LO:TX:t=P:problem=mixed beam	!	!	!	!	!LO:TX:t=P:problem=mixed beam	!	!	!	!	!	!	!	!	!	!
8BB/L	6_	16gg\LL	16bb\LL	4.ryy	8BB/L	.	4.d\	.	4.dd\	.	4.ggT\	.	4.dd\	4.gg\	4.ryy
.	.	16aa\	16ddd\	.	.	.	.	.	.	.	.	.	.	.	.
8B\	x	16gg\	16bb\	.	8B\	.	.	.	.	.	.	.	.	.	.
.	.	16aa\	16ddd\	.	.	.	.	.	.	.	.	.	.	.	.
8G\J	.	16gg\	16bb\	.	8G\J	.	.	.	.	.	.	.	.	.	.
.	.	16aa\JJ	16ddd\JJ	.	.	.	.	.	.	.	.	.	.	.	.
!	!	!LO:LB:g=original	!	!	!	!	!	!	!	!	!	!	!	!	!
=39	=39	=39	=39	=39	=39	=39	=39	=39	=39	=39	=39	=39	=39	=39	=39
8c#\L	6 5	16gg\LL	8eee\L	4.ryy	8c#\L	.	4.e\	.	4.cc#\	.	4.gg\	.	4.ee\	4.gg\	4.ryy
.	.	16aa\	.	.	.	.	.	.	.	.	.	.	.	.	.
8A\	.	16gg\	8ccc#\	.	8A\	.	.	.	.	.	.	.	.	.	.
.	.	16aa\	.	.	.	.	.	.	.	.	.	.	.	.	.
8E\J	.	16gg\	8ccc#\J	.	8E\J	.	.	.	.	.	.	.	.	.	.
.	.	16aa\JJ	.	.	.	.	.	.	.	.	.	.	.	.	.
!LO:LB:g=original	!	!	!	!	!	!	!LO:LB:g=original	!	!LO:LB:g=original	!	!	!	!	!	!
=40	=40	=40	=40	=40	=40	=40	=40	=40	=40	=40	=40	=40	=40	=40	=40
!LO:TX:t=P:problem=mixed beam	!	!	!	!	!LO:TX:t=P:problem=mixed beam	!	!	!	!	!	!	!	!	!	!
8AA/L	.	16aa\LL	16ccc#\LL	4.ryy	8AA/L	.	4.e\	.	4.a\	.	4.aaT\	.	4a/	4.aa\	4.ryy
.	.	16bb\	16eee\	.	.	.	.	.	.	.	.	.	.	.	.
8c#\	6	16aa\	16ccc#\	.	8c#\	.	.	.	.	.	.	.	.	.	.
.	.	16bb\	16eee\	.	.	.	.	.	.	.	.	.	.	.	.
8A\J	.	16aa\	16ccc#\	.	8A\J	.	.	.	.	.	.	.	8ff#\	.	.
.	.	16bb\JJ	16eee\JJ	.	.	.	.	.	.	.	.	.	.	.	.
=41	=41	=41	=41	=41	=41	=41	=41	=41	=41	=41	=41	=41	=41	=41	=41
8d\L	5 3	8aa\L	8ddd\L	4.ryy	8d\L	.	8d\L	.	4.a\	.	4.ff#\	.	4dd\	4aa\	4.ryy
8c#\	.	8ff#\	8aa\	.	8c#\	.	8c#\	.	.	.	.	.	.	.	.
8B\J	.	8dd\J	8ff#\J	.	8B\J	.	8d\J	.	.	.	.	.	8dd\	8gg\	.
!	!	!	!LO:LB:g=original	!	!	!	!	!	!	!	!LO:LB:g=original	!	!	!	!
=42	=42	=42	=42	=42	=42	=42	=42	=42	=42	=42	=42	=42	=42	=42	=42
8A\L	5 3	8a\L	4ee\	4.ryy	8A\L	.	4c#\	.	4a\	.	4ee\	.	4a/	4ee\	4.ryy
8F#\	.	8ee\	.	.	8F#\J	.	.	.	.	.	.	.	.	.	.
8D\J	.	8dd\J	8ff#\	.	8D/	-men	8d\	-men	8a\	-men	8ff#\	-men	8dd\	8ff#\	.
!	!	!	!	!	!	!	!	!	!	!	!	!	!LO:LB:g=original	!LO:LB:g=original	!
=43	=43	=43	=43	=43	=43	=43	=43	=43	=43	=43	=43	=43	=43	=43	=43
*	*	*	*	*	*	*	*	*	*	*	*	*ij	*	*	*
!LO:TX:t=P:problem=mixed beam	!	!	!	!	!LO:TX:t=P:problem=mixed beam	!	!	!	!	!	!	!	!	!	!
8G\L	.	8ee\L	8ddd\L	4.ryy	8G\L	a-	4d\	a-	4.a\	a-	4.ee\	a-	4a/	4ee\	4.ryy
8A\	.	8dd\	8aa\	.	8A\	.	.	.	.	.	.	.	.	.	.
8AA/J	.	8cc#\J	8ccc#\J	.	8AA/J	.	8c#\	.	.	.	.	.	8a/	8ee\	.
=44	=44	=44	=44	=44	=44	=44	=44	=44	=44	=44	=44	=44	=44	=44	=44
4D/	.	8ddd\L	8ddd\L	4.ryy	4D/	-men	4d\	-men	4a\	-men	4ff#\	-men	4dd\	4ff#\	4.ryy
*	*	*	*	*	*	*	*	*	*	*	*	*Xij	*	*	*
.	.	8aa\	8aa\	.	.	.	.	.	.	.	.	.	.	.	.
8r	.	8ff#\J	8ff#\J	.	8r	.	8r	.	8r	.	8r	.	8r	8r	.
=45	=45	=45	=45	=45	=45	=45	=45	=45	=45	=45	=45	=45	=45	=45	=45
!	!	!LO:TX:t=P:problem=mixed beam	!LO:TX:t=P:problem=mixed beam	!	!	!	!	!	!	!	!	!	!	!	!
!	!	!	!	!	!LO:TX:a:t=5	!	!LO:TX:a:t=1	!	!	!	!LO:TX:a:t=1	!	!	!	!
8d\L	.	8dd\L	8dd\L	4.ryy	1.r	.	4.r	.	1.r	.	4.r	.	1.r	1.r	4.ryy
8F#\	.	8f#/	8f#/	.	.	.	.	.	.	.	.	.	.	.	.
8D\J	.	8d/J	8d/J	.	.	.	.	.	.	.	.	.	.	.	.
=46	=46	=46	=46	=46	=46-	=46	=46	=46	=46-	=46	=46-	=46	=46-	=46-	=46
!	!	!LO:TX:t=P:problem=mixed beam	!LO:TX:t=P:problem=mixed beam	!	!	!	!	!	!	!	!	!	!	!	!
4AA/	.	8A/L	8A/L	4.ryy	.	.	8r	.	.	.	8r	.	.	.	4.ryy
.	.	8cc#\	8ee\	.	.	.	8c#\L	a-	.	.	8ee\L	a-	.	.	.
8r	.	8dd\J	8ff#\J	.	.	.	8d\J	.	.	.	8ff#\J	.	.	.	.
=47	=47	=47	=47	=47	=47-	=47	=47	=47	=47-	=47	=47	=47	=47-	=47-	=47
!	!	!LO:TX:t=P:problem=mixed beam	!LO:TX:t=P:problem=mixed beam	!	!	!	!	!	!	!	!	!	!	!	!
4AA/	.	8A/L	8A/L	4.ryy	.	.	8r	.	.	.	8r	.	.	.	4.ryy
.	.	8dd\	8ff#\	.	.	.	8d\L	.	.	.	8ff#\L	.	.	.	.
8r	.	8ee\J	8gg\J	.	.	.	8e\J	.	.	.	8gg\J	.	.	.	.
=48	=48	=48	=48	=48	=48-	=48	=48	=48	=48-	=48	=48	=48	=48-	=48-	=48
!	!	!LO:TX:t=P:problem=mixed beam	!LO:TX:t=P:problem=mixed beam	!	!	!	!	!	!	!	!	!	!	!	!
4AA/	.	8A/L	8A/L	4.ryy	.	.	8r	.	.	.	8r	.	.	.	4.ryy
.	.	8ee\	8gg\	.	.	.	8e\L	.	.	.	8gg\L	.	.	.	.
8r	.	8ff#\J	8aa\J	.	.	.	8f#\J	.	.	.	[<8aa\J	.	.	.	.
=49	=49	=49	=49	=49	=49-	=49	=49	=49	=49-	=49	=49	=49	=49-	=49-	=49
4AA/	8 6	8ff#\L	8aa\L	4.ryy	4.r	.	8f#\L	.	4.r	.	8aa\L]	.	4.r	4.r	4.ryy
.	.	8ee\	8gg\	.	.	.	8e\	.	.	.	8gg\	.	.	.	.
8AA/	6 4	8dd\J	8ff#\J	.	.	.	8d\J	.	.	.	8ff#\J	.	.	.	.
=50	=50	=50	=50	=50	=50-	=50	=50	=50	=50-	=50	=50	=50	=50	=50-	=50
!LO:TX:t=P:problem=mixed beam	!	!	!	!	!	!	!	!	!	!	!	!	!	!	!
8AA/L	5 3	8cc#\L	8ee\L	4.ryy	8A\L	a-	8c#\	-men	8a\L	a-	8ee,\	-men	8a/L	8ee\L	4.ryy
8e\	6 4	16ee\L	16ccc#\L	.	8e\	.	16c#\LL	a-	16a\L	.	16ee\LL	a-	8a/	8ee\	.
.	.	16ff#\	16ddd\	.	.	.	16d\	.	16b\	.	16ff#\	.	.	.	.
8d\J	.	16ee\	16ccc#\	.	8d\J	.	16c#\	.	16a\	.	16ee\	.	8a/J	8ee\J	.
.	.	16ff#\JJ	16ddd\JJ	.	.	.	16d\JJ	.	16b\JJ	.	16ff#\JJ	.	.	.	.
!	!	!LO:LB:g=original	!	!	!	!	!	!	!	!	!	!	!	!	!
=51	=51	=51	=51	=51	=51	=51	=51	=51	=51	=51	=51	=51	=51	=51	=51
8c#\L	6	8ee\L	8ccc#\L	4.ryy	8c#\L	.	8c#\L	.	8a\L	.	(8ee\L	.	8a/L	8ee\L	4.ryy
8B\	.	16ee\L	16ccc#\L	.	8B\	.	16c#\L	.	16a\L	.	16ee\L	.	8a/	8ee\	.
.	.	16ff#\	16ddd\	.	.	.	16d\	.	16b\	.	16ff#\)	.	.	.	.
8A\J	.	16ee\	16ccc#\	.	8A\J	.	16c#\	.	16a\	.	16ee\	.	8a/J	8ee\J	.
.	.	16ff#\JJ	16ddd\JJ	.	.	.	16d\JJ	.	16b\JJ	.	16ff#\JJ	.	.	.	.
=52	=52	=52	=52	=52	=52	=52	=52	=52	=52	=52	=52	=52	=52	=52	=52
!LO:TX:t=P:problem=mixed beam	!	!	!	!	!LO:TX:t=P:problem=mixed beam	!	!	!	!	!	!	!	!	!	!
8AA/L	.	8gg\L	8ccc#\L	4.ryy	8AA/L	.	8e\L	.	4a\	.	8gg\L	.	8ee\L	8gg\L	4.ryy
8e\	6 4	16gg\L	16ccc#\L	.	8e\	.	16e\L	.	.	.	8ee\	.	8ee\	8gg\	.
.	.	16aa\	16ddd\	.	.	.	16f#\	.	.	.	.	.	.	.	.
8d\J	.	16gg\	16ccc#\	.	8d\J	.	16e\	.	8a\	-men	8cc#\J	.	8ee\J	8gg\J	.
.	.	16aa\JJ	16ddd\JJ	.	.	.	16f#\JJ	.	.	.	.	.	.	.	.
=53	=53	=53	=53	=53	=53	=53	=53	=53	=53	=53	=53	=53	=53	=53	=53
8c#\L	6	8gg\L	8ccc#\L	4.ryy	8c#\L	.	8e\L	.	4.a\	a-	8a\L	.	8ee\L	8gg\L	4.ryy
8B\	.	16gg\L	16ccc#\L	.	8B\	.	16e\L	.	.	.	8cc#\	.	8ee\	8gg\	.
.	.	16aa\	16ddd\	.	.	.	16f#\	.	.	.	.	.	.	.	.
8A\J	.	16gg\	16ccc#\	.	8A\J	.	16e\	.	.	.	8ee\J	.	8ee\J	8gg\J	.
.	.	16aa\JJ	16ddd\JJ	.	.	.	16f#\JJ	.	.	.	.	.	.	.	.
!LO:LB:g=original	!	!	!	!	!	!	!LO:LB:g=original	!	!	!	!	!	!	!	!
=54	=54	=54	=54	=54	=54	=54	=54	=54	=54	=54	=54	=54	=54	=54	=54
!	!	!	!LO:N:vis=4	!	!	!	!LO:N:vis=4	!	!	!	!	!	!LO:N:vis=4	!	!
4.AA;>/	7	4gg;\	4.ccc#;\	4.ryy	4.A;\	-men	4.e;>\	-men	4.a;\	-men	4.gg;>\	-men	4.ee;>\	4.gg;>\	4.ryy
.	.	8r	.	.	.	.	.	.	.	.	.	.	.	.	.
!	!	!	!LO:LB:g=original	!	!LO:LB:g=original	!	!	!	!	!	!	!	!	!	!
=55	=55	=55	=55	=55	=55	=55	=55	=55	=55	=55	=55	=55	=55	=55	=55
*	*	*	*	*	*	*	*	*ij	*	*ij	*	*ij	*	*	*
4d\	.	8ff#\L	8ddd\L	4.ryy	4d\	a-	4d\	a-	4a\	a-	4ff#\	a-	4dd\	4ff#\	4.ryy
.	.	8dd\	8ff#\	.	.	.	.	.	.	.	.	.	.	.	.
8G\	.	8ff#\J	8ddd\J	.	8G\	-men	8d\	-men	8a\	-men	8ff#\	-men	8dd\	8ff#\	.
*	*	*	*	*	*	*	*	*Xij	*	*Xij	*	*Xij	*	*	*
!	!	!	!	!	!	!	!	!	!	!	!LO:LB:g=original	!	!	!	!
=56	=56	=56	=56	=56	=56	=56	=56	=56	=56	=56	=56	=56	=56	=56	=56
!	!	!	!LO:TX:t=P:problem=mixed beam	!	!	!	!	!	!	!	!	!	!	!	!
4A\	.	4a/	8a/L	4.ryy	4A\	a-	4.c#\	a-	4.a\	a-	4.ee\	a-	4.a/	4.aa\	4.ryy
.	.	.	8ddd\	.	.	.	.	.	.	.	.	.	.	.	.
8AA/	.	8ee\	8ccc#\J	.	8AA/	.	.	.	.	.	.	.	.	.	.
=57	=57	=57	=57	=57	=57	=57	=57	=57	=57	=57	=57	=57	=57	=57	=57
4D/	.	8ddd\L	8ddd\L	4.ryy	4D/	-men	4d\	-men	4a\	-men	4ff#\	-men	4dd\	4ff#\	4.ryy
.	.	8aa\	8aa\	.	.	.	.	.	.	.	.	.	.	.	.
8r	.	8ff#\J	8ff#\J	.	8r	.	8r	.	8r	.	8r	.	8r	8r	.
!	!	!	!	!	!	!	!	!	!LO:LB:g=original	!	!	!	!	!	!
=58	=58	=58	=58	=58	=58	=58	=58	=58	=58	=58	=58	=58	=58	=58	=58
*	*	*	*	*	*	*ij	*	*ij	*	*ij	*	*ij	*	*	*
4d\	.	4d/ 4a 4ff#	4dd\	4.ryy	4d\	a-	4d\	a-	4a\	a-	4ff#\	a-	4dd\	4ff#\	4.ryy
8D/	.	8r	8r	.	8D/	-men	8d\	-men	8a\	-men	8ff#\	-men	8dd\	8ff#\	.
*	*	*	*	*	*	*Xij	*	*Xij	*	*Xij	*	*Xij	*	*	*
=59	=59	=59	=59	=59	=59	=59	=59	=59	=59	=59	=59	=59	=59	=59	=59
!LO:TX:a:t=1	!	!	!	!	!LO:TX:a:t=1	!	!LO:TX:a:t=1	!	!LO:TX:a:t=1	!	!LO:TX:a:t=1	!	!LO:TX:a:t=1	!LO:TX:a:t=1	!
4.r	.	8ddd\L	8ddd\L	4.ryy	4.r	.	4.r	.	4.r	.	4.r	.	4.r	4.r	4.ryy
.	.	8aa\	8aa\	.	.	.	.	.	.	.	.	.	.	.	.
.	.	8ff#\J	8ff#\J	.	.	.	.	.	.	.	.	.	.	.	.
=60	=60	=60	=60	=60	=60-	=60	=60-	=60	=60-	=60	=60-	=60	=60	=60-	=60
*	*	*	*	*	*	*	*	*ij	*	*	*	*	*	*	*
4d\	.	4d/ 4a 4ff#	4dd\	4.ryy	4d\	a-	4d\	a-	4a\	a-	4ff#\	a-	4dd\	4ff#\	4.ryy
8D/	.	8d/ 8a 8ff#	8ddd\	.	8D/	-men	8d\	-men	8a\	-men	8ff#\	-men	8dd\	8ff#\	.
*	*	*	*	*	*	*	*	*Xij	*	*	*	*	*	*	*
=61	=61	=61	=61	=61	=61	=61	=61	=61	=61	=61	=61	=61	=61	=61	=61
*	*	*^	*	*	*	*	*	*	*	*	*	*	*	*	*
*	*	*	*	*	*	*	*	*	*	*	*ij	*	*ij	*	*	*
8A\L	5_ 3_	4cc#/ 4ee	4a\	4ccc#\	4.ryy	8A\L	a-	4c#\	a-	4a\	a-	4ee\	a-	4ee\	4aa\	4.ryy
8F#\	x x	.	.	.	.	8F#\J	.	.	.	.	.	.	.	.	.	.
8D\J	.	8d/ 8a 8ff#	8ryy	8ddd\	.	8D/	-men	8d\	-men	8a\	-men	8ff#\	-men	8dd\	8ff#\	.
*	*	*	*	*	*	*	*	*	*	*	*Xij	*	*Xij	*	*	*
!	!	!	!	!	!	!	!	!	!	!	!	!	!	!LO:LB:g=original	!	!
=62	=62	=62	=62	=62	=62	=62	=62	=62	=62	=62	=62	=62	=62	=62	=62	=62
*	*	*	*	*	*	*	*ij	*	*ij	*	*	*	*	*	*	*
4A\	6 4	4d/ 4a 4ff#	4ryy	4ddd\	4.ryy	4A\	a-	4.c#\	a-	4.a\	a-	4.ee\	a-	4dd\	4ee\	4.ryy
8AA/	5 3	8cc#/ 8ee	8a\	8ccc#\	.	8AA/	-men	.	.	.	.	.	.	8a/	8ff#\	.
*	*	*	*	*	*	*	*Xij	*	*	*	*	*	*	*	*	*
!	!	!LO:LB:g=original	!LO:LB:g=original	!	!	!	!	!	!	!	!	!	!	!	!LO:LB:g=original	!
=63	=63	=63	=63	=63	=63	=63	=63	=63	=63	=63	=63	=63	=63	=63	=63	=63
4D/	.	4d/ 4a 4ff#	4ryy	4ddd\	4.ryy	4D/	a-	4d\	-men	4a\	-men	4ff#\	-men	4dd\	4ff#\	4.ryy
*	*	*	*	*	*	*	*	*	*Xij	*	*ij	*	*ij	*	*	*
8A\	.	8cc#/ 8ee	8a\	8ccc#\	.	8A\	.	8c#\	a-	8a\	a-	8ee\	a-	8ee\	8aa\	.
*	*	*v	*v	*	*	*	*	*	*	*	*	*	*	*	*	*
=64	=64	=64	=64	=64	=64	=64	=64	=64	=64	=64	=64	=64	=64	=64	=64
4D/	.	4d/ 4a 4ff#	4ddd\	4.ryy	4D/	-men.	4.d\	-men.	4a\	-men	4ff#\	-men	4dd\	4ff#\	4.ryy
*	*	*	*	*	*	*	*	*	*	*Xij	*	*Xij	*	*	*
8r	.	8r	8r	.	8r	.	.	.	8r	.	8r	.	8r	8r	.
==	==	==	==	==	==	==	==	==	==	==	==	==	==	==	==
*-	*-	*-	*-	*-	*-	*-	*-	*-	*-	*-	*-	*-	*-	*-	*-
!!!system-decoration: [(s1,s2,s3)][(s4,s5,s6,s7,s8)][(s9,s10)](s11)
!!!RDF**kern: < = below
!!!RDF**kern: > = above
!!!RDF**kern: | = vertical stroke
!!!ENC: Mateusz Solarz
!!!END: 2020-07-29
!!!ENC: Marta Chmielewska
!!!END: 2022-03-11
!!!YEC: Copyright 2022 Narodowy Instytut Fryderyka Chopina (https://polishscores.org)
!!!YEM: License CC-BY-4.0 (https://creativecommons.org/licenses/by/4.0)
